static/fa/svgs/solid/battery-half.svg

<svg xmlns="http://www.w3.org/2000/svg" viewBox="0 0 576 512"><!--! Font Awesome Free 6.1.1 by @fontawesome - https://fontawesome.com License - https://fontawesome.com/license/free (Icons: CC BY 4.0, Fonts: SIL OFL 1.1, Code: MIT License) Copyright 2022 Fonticons, Inc.--><path d="M288 320H96V192h192v128zM0 176c0-44.2 35.82-80 80-80h384c44.2 0 80 35.8 80 80v16c17.7 0 32 14.3 32 32v64c0 17.7-14.3 32-32 32v16c0 44.2-35.8 80-80 80H80c-44.18 0-80-35.8-80-80V176zm80-16c-8.84 0-16 7.2-16 16v160c0 8.8 7.16 16 16 16h384c8.8 0 16-7.2 16-16V176c0-8.8-7.2-16-16-16H80z"/></svg>

<svg xmlns="http://www.w3.org/2000/svg" viewBox="0 0 576 512"><!--! Font Awesome Free 6.1.1 by @fontawesome - https://fontawesome.com License - https://fontawesome.com/license/free (Icons: CC BY 4.0, Fonts: SIL OFL 1.1, Code: MIT License) Copyright 2022 Fonticons, Inc. --><path d="M288 320H96V192H288V320zM0 176C0 131.8 35.82 96 80 96H464C508.2 96 544 131.8 544 176V192C561.7 192 576 206.3 576 224V288C576 305.7 561.7 320 544 320V336C544 380.2 508.2 416 464 416H80C35.82 416 0 380.2 0 336V176zM80 160C71.16 160 64 167.2 64 176V336C64 344.8 71.16 352 80 352H464C472.8 352 480 344.8 480 336V176C480 167.2 472.8 160 464 160H80z"/></svg>
